tools/download-figma-icons/icons/solid/family-house.svg

<svg width="24" height="24" viewBox="0 0 24 24" fill="none" xmlns="http://www.w3.org/2000/svg">
<path fill-rule="evenodd" clip-rule="evenodd" d="M14.2274 22.4997L14.1524 20.4073C14.1074 19.5673 13.9199 18.8248 13.6199 18.269C13.6049 18.2323 13.5899 18.1948 13.5749 18.1648C13.3724 17.8198 13.1399 17.5565 12.8774 17.4065C13.1699 17.249 13.4174 17.0165 13.5899 16.739C13.7706 16.4541 13.8749 16.1091 13.8749 15.7491C13.8749 15.4341 13.8006 15.1341 13.6574 14.8791C13.3499 14.2791 12.7199 13.8741 11.9999 13.8741C10.9649 13.8741 10.1249 14.7141 10.1249 15.7491C10.1249 16.4691 10.5299 17.0915 11.1224 17.4065C10.8374 17.5723 10.5832 17.8715 10.3799 18.2623C10.3724 18.2623 10.3724 18.2623 10.3799 18.269C10.0807 18.8248 9.89318 19.5673 9.84743 20.4073L9.77318 22.4997H4.51499L4.60499 18.6373C4.66499 16.709 4.99499 14.4741 6.08322 13.7466C5.58073 13.3341 5.24999 12.7033 5.24999 11.9991C5.24999 10.7616 6.26247 9.74839 7.49996 9.74839C8.73819 9.74839 9.74993 10.7616 9.74993 11.9991C9.74993 12.7033 9.41993 13.3416 8.90994 13.7541C9.09744 13.8816 9.26243 14.0541 9.40493 14.2566C9.91493 13.3566 10.8899 12.7491 11.9999 12.7491C12.7199 12.7491 13.3874 13.0041 13.9049 13.4316C14.1524 12.4791 14.5506 11.8116 15.0749 11.4884C14.5724 11.0766 14.2499 10.4466 14.2499 9.74839C14.2499 8.51165 15.2624 7.49842 16.4998 7.49842C17.7381 7.49842 18.7498 8.51165 18.7498 9.74839C18.7498 10.4534 18.4198 11.0834 17.9173 11.4966C18.7873 12.0291 19.3123 13.4916 19.3956 15.6666L19.4856 22.4997H14.2274ZM23.6922 8.39101L12.4423 0.141111C12.1806 -0.0463861 11.8198 -0.0463861 11.5574 0.141111L7.4999 3.11857V1.49859C7.4999 1.08535 7.16241 0.748604 6.74991 0.748604H3.74995C3.33746 0.748604 2.99996 1.08535 2.99996 1.49859V6.41928L0.307496 8.39101C0.113249 8.5335 0 8.75925 0 8.9985V11.2492C0 11.6617 0.337496 11.9992 0.74999 11.9992H1.49998V23.2498C1.49998 23.6623 1.83748 23.9998 2.24997 23.9998H21.7497C22.1622 23.9998 22.4997 23.6623 22.4997 23.2498V11.9992H23.2497C23.6622 11.9992 23.9997 11.6617 23.9997 11.2492V8.9985C23.9997 8.75925 23.8872 8.5335 23.6922 8.39101Z" fill="black"/>
</svg>

<svg width="24" height="24" viewBox="0 0 24 24" fill="none" xmlns="http://www.w3.org/2000/svg"><path fill-rule="evenodd" clip-rule="evenodd" d="m14.227 22.5-.075-2.093c-.045-.84-.232-1.582-.532-2.138-.015-.037-.03-.074-.045-.104-.203-.345-.435-.608-.698-.758.293-.158.54-.39.713-.668a1.862 1.862 0 0 0 .067-1.86A1.859 1.859 0 0 0 12 13.874a1.876 1.876 0 0 0-.878 3.533c-.285.165-.539.465-.742.855-.008 0-.008 0 0 .007-.3.556-.487 1.298-.533 2.138L9.773 22.5H4.515l.09-3.863c.06-1.928.39-4.163 1.478-4.89a2.265 2.265 0 0 1-.833-1.748A2.257 2.257 0 0 1 7.5 9.75 2.257 2.257 0 0 1 9.75 12c0 .704-.33 1.343-.84 1.755.187.128.352.3.495.503A2.983 2.983 0 0 1 12 12.749c.72 0 1.387.255 1.905.683.247-.953.646-1.62 1.17-1.944a2.25 2.25 0 0 1-.825-1.74 2.257 2.257 0 0 1 2.25-2.25 2.257 2.257 0 0 1 2.25 2.25c0 .705-.33 1.335-.833 1.749.87.532 1.395 1.995 1.479 4.17l.09 6.833h-5.259Zm9.465-14.11L12.442.141a.766.766 0 0 0-.885 0L7.5 3.12V1.5a.752.752 0 0 0-.75-.75h-3A.752.752 0 0 0 3 1.5v4.92L.307 8.391A.753.753 0 0 0 0 8.998v2.251c0 .413.337.75.75.75h.75v11.25c0 .413.337.75.75.75h19.5c.412 0 .75-.337.75-.75V12h.75c.412 0 .75-.337.75-.75V9a.75.75 0 0 0-.308-.608Z" fill="currentColor"/></svg>
